X: 13
T: Franc A'Phoill
Z: Erik-Fiddler
S: https://thesession.org/tunes/31#setting48864
R: jig
M: 6/8
L: 1/8
K: Dmix
|:A2D B2D|A2G FED|A2D B2F|GFG AFD|
A2D B2D|A2G FED|GAB cAF|GFG AFD:|
|:dfa afd|d^cd ecA|GAB =cAF|GFG AFD|
dfa af/g/a|geg fdA|GAB cAF|GFG AFD:|
|:(3d/d/d/d e dcA|(3d/d/d/d e dcA|(3d/d/d/d e dcA|GFG AFD|
(3d/d/d/d e d2 e|d2e dcA|GAB cAF|GFG AFD:|
|:def def|def e^cA|def def|GFG AFD|
def def|def e^cA|GAB =cAF|GFG GA/B/c:|
|:d (3D/D/D/D c (3D/D/D/D|B (3D/D/D/D c (3D/D/D/D|d (3D/D/D/D c (3D/D/D/D|GFG AFD|
dD/D/D cD/D/D|BD/D/D AGF|GAB cAF|GFG AFD:|

